static/img/kroki/c3f2fb3c0470ae0d586188402b677a03.svg

<?xml version="1.0" encoding="us-ascii" standalone="no"?><svg xmlns="http://www.w3.org/2000/svg" xmlns:xlink="http://www.w3.org/1999/xlink" contentStyleType="text/css" height="152px" preserveAspectRatio="none" style="width:205px;height:152px;" version="1.1" viewBox="0 0 205 152" width="205px" zoomAndPan="magnify"><defs/><g><!--class azure_disk--><g id="elem_azure_disk"><rect codeLine="22" fill="#3D176E" height="39.7891" id="azure_disk" rx="2.5" ry="2.5" style="stroke:#000D19;stroke-width:0.5;" width="130" x="37.5" y="106.79"/><ellipse cx="52.5" cy="126.6845" fill="#ADD1B2" rx="11" ry="11" style="stroke:#181818;stroke-width:1.0;"/><path d="M55.4688,132.3252 Q54.8906,132.622 54.25,132.7627 Q53.6094,132.9189 52.9063,132.9189 Q50.4063,132.9189 49.0781,131.2783 Q47.7656,129.622 47.7656,126.497 Q47.7656,123.372 49.0781,121.7158 Q50.4063,120.0595 52.9063,120.0595 Q53.6094,120.0595 54.25,120.2158 Q54.9063,120.372 55.4688,120.6689 L55.4688,123.3877 Q54.8438,122.8095 54.25,122.5439 Q53.6563,122.2627 53.0313,122.2627 Q51.6875,122.2627 51,123.3408 Q50.3125,124.4033 50.3125,126.497 Q50.3125,128.5908 51,129.6689 Q51.6875,130.7314 53.0313,130.7314 Q53.6563,130.7314 54.25,130.4658 Q54.8438,130.1845 55.4688,129.6064 L55.4688,132.3252 Z " fill="#000000"/><text fill="#D9B8FF" font-family="Helvetica" font-size="17" lengthAdjust="spacing" textLength="88" x="71.5" y="132.5698">azure_disk</text></g><!--class azure_disk_access--><g id="elem_azure_disk_access"><rect codeLine="24" fill="#3D176E" height="39.7891" id="azure_disk_access" rx="2.5" ry="2.5" style="stroke:#000D19;stroke-width:0.5;" width="191" x="7" y="7"/><ellipse cx="22" cy="26.8945" fill="#ADD1B2" rx="11" ry="11" style="stroke:#181818;stroke-width:1.0;"/><path d="M24.9688,32.5352 Q24.3906,32.832 23.75,32.9727 Q23.1094,33.1289 22.4063,33.1289 Q19.9063,33.1289 18.5781,31.4883 Q17.2656,29.832 17.2656,26.707 Q17.2656,23.582 18.5781,21.9258 Q19.9063,20.2695 22.4063,20.2695 Q23.1094,20.2695 23.75,20.4258 Q24.4063,20.582 24.9688,20.8789 L24.9688,23.5977 Q24.3438,23.0195 23.75,22.7539 Q23.1563,22.4727 22.5313,22.4727 Q21.1875,22.4727 20.5,23.5508 Q19.8125,24.6133 19.8125,26.707 Q19.8125,28.8008 20.5,29.8789 Q21.1875,30.9414 22.5313,30.9414 Q23.1563,30.9414 23.75,30.6758 Q24.3438,30.3945 24.9688,29.8164 L24.9688,32.5352 Z " fill="#000000"/><text fill="#D9B8FF" font-family="Helvetica" font-size="17" lengthAdjust="spacing" textLength="149" x="41" y="32.7798">azure_disk_access</text></g><!--link azure_disk_access to azure_disk--><g id="link_azure_disk_access_azure_disk"><path codeLine="26" d="M102.5,47.22 C102.5,64.36 102.5,83.27 102.5,100.41 " fill="none" id="azure_disk_access-to-azure_disk" style="stroke:#1A83AF;stroke-width:2.0;"/><polygon fill="#1A83AF" points="102.5,106.41,106.5,97.41,102.5,101.41,98.5,97.41,102.5,106.41" style="stroke:#1A83AF;stroke-width:2.0;"/></g><!--SRC=[XP9FIyGm4CNl-oa2FI-q5crx4MfXqSiYhZUHPTfCjg5jKYQfowxutRMkIcpsp_MzNsRU6r9BZWoxtkvOXrs9P6QcaQe7WexbH7fRw5OJ2uG04ITJSw6LlGWieKDsZ-qRMbd1b7YkPTKeD8PTETOTLCs6zA3uORmbKERBGcKTgcZ1cDnQakLWqGd3ip8LOafEXmOnZv8Rz31D7Ea72SEGHzaKkRZgREy_OYNto2BtQ4jjqOlfhVYcpgOS2IUaL_JNFvdn4JYNQiEk7Utfa8aKqZzzLGFNsv4Mq1ftZR58gEskny9hXLdAHN8KVZW5L-Fb6Em7mZMNfc7limzFN4DLZVzfz7nr_X94UHhdYzVvhVFe4m00]--></g></svg>

<svg xmlns="http://www.w3.org/2000/svg" width="205" height="152" viewBox="0 0 205 152"><rect width="130" height="39.789" x="37.5" y="106.79" fill="#3D176E" rx="2.5" ry="2.5" style="stroke:#000d19;stroke-width:.5"/><circle cx="52.5" cy="126.684" r="11" fill="#ADD1B2" style="stroke:#181818;stroke-width:1"/><path d="M55.469 132.325q-.578.297-1.219.438-.64.156-1.344.156-2.5 0-3.828-1.64-1.312-1.657-1.312-4.782t1.312-4.781q1.328-1.656 3.828-1.656.703 0 1.344.156.656.156 1.219.453v2.719q-.625-.579-1.219-.844-.594-.281-1.219-.281-1.343 0-2.031 1.078-.687 1.062-.687 3.156t.687 3.172q.688 1.062 2.031 1.062.625 0 1.219-.265.594-.281 1.219-.86z"/><text x="71.5" y="132.57" fill="#D9B8FF" font-family="Helvetica" font-size="17" textLength="88">azure_disk</text><rect width="191" height="39.789" x="7" y="7" fill="#3D176E" rx="2.5" ry="2.5" style="stroke:#000d19;stroke-width:.5"/><circle cx="22" cy="26.895" r="11" fill="#ADD1B2" style="stroke:#181818;stroke-width:1"/><path d="M24.969 32.535q-.578.297-1.219.438-.64.156-1.344.156-2.5 0-3.828-1.64-1.312-1.657-1.312-4.782t1.312-4.781q1.328-1.656 3.828-1.656.703 0 1.344.156.656.156 1.219.453v2.719q-.625-.578-1.219-.844-.594-.281-1.219-.281-1.343 0-2.031 1.078-.687 1.062-.687 3.156t.687 3.172q.688 1.062 2.031 1.062.625 0 1.219-.265.594-.281 1.219-.86z"/><text x="41" y="32.78" fill="#D9B8FF" font-family="Helvetica" font-size="17" textLength="149">azure_disk_access</text><path fill="none" d="M102.5 47.22v53.19" style="stroke:#1a83af;stroke-width:2"/><path fill="#1A83AF" d="m102.5 106.41 4-9-4 4-4-4z" style="stroke:#1a83af;stroke-width:2"/></svg>
